X: 41490
T: Tythe Pig, The
R: jig
M: 6/8
K: Gmajor
GAB AFD|G2A B3|cde dBG|1 c2A F3:|2 c2B A3||
d2B G3|e2c A3|dBd ece|dBd e2f|g2g gfe|
d2B G3|d2B d3|d2B e2f|gfe dBG|d2B G3||

